X: 29819
T: O'Connor Donn's
R: reel
M: 4/4
K: Gmajor
|:B2AG FGAG|B2AG BAAG|FADA FAfe|dcBA B2GA|
B2AG FGAG|B2AG BAAG|FADA FAfe|dcBA G4:|
g2fa d2fa|d2fa d3g|faaf d3d|egga g3a|
fada fada|faag fddg|faab c'bag|fgaf g4|
fgaf d2fa|d2fa d3g|faaf d3d|egga g3a|
fada fada|faag fddg|faab c'bag|fgaf g4||

